build/img/svg/age.svg

<svg width="26" height="25" viewBox="0 0 26 25" fill="none" xmlns="http://www.w3.org/2000/svg">
<path d="M5.32246 15.18H6.99246V10.03L5.32246 11.22V10.2L7.01246 9H7.95246V15.18H9.32246V16H5.32246V15.18ZM12.676 16.1C12.2626 16.1 11.8993 16.05 11.586 15.95C11.2726 15.85 11.0093 15.7133 10.796 15.54C10.5893 15.3667 10.4326 15.1633 10.326 14.93C10.226 14.69 10.176 14.43 10.176 14.15C10.176 13.75 10.3026 13.3933 10.556 13.08C10.8093 12.76 11.1826 12.5333 11.676 12.4C11.496 12.34 11.326 12.26 11.166 12.16C11.0126 12.0533 10.876 11.93 10.756 11.79C10.636 11.65 10.5426 11.4933 10.476 11.32C10.4093 11.14 10.376 10.95 10.376 10.75C10.376 10.49 10.426 10.2467 10.526 10.02C10.626 9.79333 10.7726 9.6 10.966 9.44C11.1593 9.27333 11.3993 9.14333 11.686 9.05C11.9726 8.95 12.3026 8.9 12.676 8.9C13.0493 8.9 13.3793 8.95 13.666 9.05C13.9526 9.14333 14.1926 9.27333 14.386 9.44C14.5793 9.6 14.726 9.79333 14.826 10.02C14.926 10.2467 14.976 10.49 14.976 10.75C14.976 11.15 14.8493 11.49 14.596 11.77C14.3493 12.05 14.0426 12.26 13.676 12.4C14.176 12.5667 14.5493 12.7867 14.796 13.06C15.0493 13.3333 15.176 13.6967 15.176 14.15C15.176 14.43 15.1226 14.69 15.016 14.93C14.916 15.1633 14.7593 15.3667 14.546 15.54C14.3393 15.7133 14.0793 15.85 13.766 15.95C13.4526 16.05 13.0893 16.1 12.676 16.1ZM12.676 15.26C12.9626 15.26 13.206 15.23 13.406 15.17C13.606 15.1033 13.766 15.02 13.886 14.92C14.0126 14.8133 14.1026 14.69 14.156 14.55C14.2093 14.4033 14.236 14.25 14.236 14.09C14.236 13.9033 14.196 13.7333 14.116 13.58C14.0426 13.4267 13.936 13.2933 13.796 13.18C13.656 13.06 13.4893 12.9667 13.296 12.9C13.1093 12.8267 12.9026 12.7767 12.676 12.75C12.4493 12.7767 12.2393 12.8267 12.046 12.9C11.8593 12.9667 11.696 13.0567 11.556 13.17C11.416 13.2833 11.306 13.42 11.226 13.58C11.1526 13.7333 11.116 13.9033 11.116 14.09C11.116 14.25 11.1426 14.4033 11.196 14.55C11.2493 14.69 11.336 14.8133 11.456 14.92C11.5826 15.02 11.746 15.1033 11.946 15.17C12.146 15.23 12.3893 15.26 12.676 15.26ZM12.676 12.05C13.076 11.9967 13.4026 11.87 13.656 11.67C13.9093 11.4633 14.036 11.1733 14.036 10.8C14.036 10.46 13.9226 10.2 13.696 10.02C13.476 9.83333 13.136 9.74 12.676 9.74C12.2093 9.74 11.866 9.83333 11.646 10.02C11.426 10.2 11.316 10.46 11.316 10.8C11.316 11.1733 11.4426 11.4633 11.696 11.67C11.9493 11.87 12.276 11.9967 12.676 12.05ZM18.0395 12.81H16.2295V11.99H18.0395V10.15H18.9195V11.99H20.7295V12.81H18.9195V14.65H18.0395V12.81Z" fill="white"/>
<circle cx="12.5" cy="12.5" r="12" stroke="white"/>
</svg>

<svg width="26" height="25" fill="none" xmlns="http://www.w3.org/2000/svg"><path d="M5.322 15.18h1.67v-5.15l-1.67 1.19V10.2L7.012 9h.94v6.18h1.37V16h-4v-.82zm7.354.92a3.59 3.59 0 01-1.09-.15 2.391 2.391 0 01-.79-.41 1.727 1.727 0 01-.47-.61c-.1-.24-.15-.5-.15-.78 0-.4.127-.757.38-1.07.253-.32.627-.547 1.12-.68-.18-.06-.35-.14-.51-.24a2.167 2.167 0 01-.41-.37 1.597 1.597 0 01-.28-.47 1.788 1.788 0 01.05-1.3c.1-.227.247-.42.44-.58.193-.167.433-.297.72-.39a3 3 0 01.99-.15 3 3 0 01.99.15c.287.093.527.223.72.39.193.16.34.353.44.58.1.227.15.47.15.73 0 .4-.127.74-.38 1.02-.247.28-.553.49-.92.63.5.167.873.387 1.12.66.253.273.38.637.38 1.09 0 .28-.053.54-.16.78a1.59 1.59 0 01-.47.61c-.207.173-.467.31-.78.41-.313.1-.677.15-1.09.15zm0-.84c.287 0 .53-.03.73-.09.2-.067.36-.15.48-.25a.902.902 0 00.27-.37c.053-.147.08-.3.08-.46 0-.187-.04-.357-.12-.51a1.15 1.15 0 00-.32-.4 1.521 1.521 0 00-.5-.28 2.488 2.488 0 00-.62-.15 2.643 2.643 0 00-.63.15c-.187.067-.35.157-.49.27-.14.113-.25.25-.33.41a1.17 1.17 0 00-.11.51c0 .16.027.313.08.46.053.14.14.263.26.37.127.1.29.183.49.25.2.06.443.09.73.09zm0-3.21c.4-.053.727-.18.98-.38.253-.207.38-.497.38-.87 0-.34-.113-.6-.34-.78-.22-.187-.56-.28-1.02-.28-.467 0-.81.093-1.03.28-.22.18-.33.44-.33.78 0 .373.127.663.38.87.253.2.58.327.98.38zm5.364.76h-1.81v-.82h1.81v-1.84h.88v1.84h1.81v.82h-1.81v1.84h-.88v-1.84z" fill="#fff"/><circle cx="12.5" cy="12.5" r="12" stroke="#fff"/></svg>
